icon-themes/breeze_svg/cmd/sc_dbnewreport.svg

<svg viewBox="0 0 16 16" xmlns="http://www.w3.org/2000/svg"><path d="m3 2v12h6v-1h-5v-10h8v5h1v-6zm2 2v3h3v-3zm4 0v1h2v-1zm-3 1h1v1h-1zm3 1v1h2v-1zm-4 2v1h4v-1zm0 2v1h3v-1z" fill="#4d4d4d"/><path d="m11 9v2h-2v1h2v2h1v-2h2v-1h-2v-2z" fill="#1d99f3"/></svg>

<svg xmlns="http://www.w3.org/2000/svg" viewBox="0 0 16 16">
 <path 
     style="fill:#4d4d4d" 
     d="M 3 2 L 3 14 L 9 14 L 9 13 L 4 13 L 4 3 L 12 3 L 12 8 L 13 8 L 13 2 L 3 2 z M 5 4 L 5 7 L 8 7 L 8 4 L 5 4 z M 9 4 L 9 5 L 11 5 L 11 4 L 9 4 z M 9 6 L 9 7 L 11 7 L 11 6 L 9 6 z M 5 8 L 5 9 L 9 9 L 9 8 L 5 8 z M 5 10 L 5 11 L 8 11 L 8 10 L 5 10 z "
     />
 <path 
     style="fill:#1d99f3" 
     d="M 11 9 L 11 11 L 9 11 L 9 12 L 11 12 L 11 14 L 12 14 L 12 12 L 14 12 L 14 11 L 12 11 L 12 9 L 11 9 z "
     />
 </svg>
